X: 39129
T: Sweet Gleann Corbraí
R: reel
M: 4/4
K: Dmajor
|:f2af efdB|AFF2 ABde|faa2 bfaf|egfe dBAB|
dff2 efdB|AFF2 ABde|faa2 bfaf|edef d4:|
|:faa2 bfaf|dff2 efdB|AFF2 A2de|fedf e2de|
faa2 bfaf|dff2 efdB|AFF2 ABde|(3fga ef d4:|

